apps/www/public/images/logos/openai.svg

<svg width="25" height="25" viewBox="0 0 25 25" fill="none" xmlns="http://www.w3.org/2000/svg">
<path d="M20.2474 11.2218C20.6558 9.99658 20.5156 8.65558 19.8634 7.54011C18.882 5.83338 16.9071 4.95563 14.9809 5.36403C14.1214 4.40094 12.8901 3.85235 11.5979 3.85845C9.62908 3.85845 7.87968 5.1263 7.27013 6.99761C6.00227 7.25972 4.91119 8.05213 4.27116 9.17369C3.2837 10.8804 3.50923 13.026 4.83195 14.4889C4.42355 15.7141 4.56375 17.0551 5.21596 18.1645C6.19733 19.8773 8.17226 20.7551 10.1045 20.3467C10.9579 21.3098 12.1892 21.8644 13.4814 21.8583C15.4502 21.8583 17.1996 20.5905 17.8092 18.7192C19.077 18.4571 20.1681 17.6647 20.8021 16.5431C21.7956 14.8364 21.5701 12.6908 20.2474 11.2279V11.2218ZM18.8454 8.13137C19.2355 8.81406 19.3818 9.61256 19.2477 10.3867C19.2233 10.3684 19.1746 10.344 19.1441 10.3257L15.56 8.25328C15.3771 8.14965 15.1516 8.14965 14.9687 8.25328L10.7689 10.6793V8.8994L14.2372 6.89399C15.8525 5.96138 17.9128 6.51607 18.8454 8.13137ZM10.7689 11.8313L12.5366 10.8073L14.3043 11.8313V13.8733L12.5366 14.8973L10.7689 13.8733V11.8313ZM11.5918 5.03487C12.3842 5.03487 13.1462 5.30917 13.7557 5.81509C13.7313 5.82728 13.6826 5.85776 13.646 5.87605L10.0619 7.94241C9.87899 8.04603 9.76927 8.24109 9.76927 8.45443V13.3064L8.22712 12.4165V8.40566C8.22712 6.54045 9.7327 5.03487 11.5979 5.02878L11.5918 5.03487ZM5.2952 9.76495C5.69141 9.08226 6.30705 8.55805 7.05069 8.28375V12.5445C7.05069 12.7578 7.16041 12.9468 7.34328 13.0565L11.537 15.4764L9.98871 16.3724L6.52648 14.3731C4.91728 13.4405 4.3626 11.3802 5.2952 9.76495ZM6.24 17.5854C5.84379 16.9088 5.7036 16.1042 5.8377 15.3301C5.86208 15.3484 5.91084 15.3728 5.94132 15.3911L9.52545 17.4635C9.70832 17.5671 9.93385 17.5671 10.1167 17.4635L14.3104 15.0375V16.8174L10.8421 18.8167C9.22677 19.7432 7.16651 19.1946 6.2339 17.5854H6.24ZM13.4875 20.6819C12.7012 20.6819 11.9332 20.4076 11.3297 19.9017C11.3541 19.8895 11.4089 19.859 11.4394 19.8407L15.0236 17.7744C15.2064 17.6708 15.3222 17.4757 15.3161 17.2624V12.4165L16.8583 13.3064V17.3111C16.8583 19.1763 15.3466 20.688 13.4875 20.688V20.6819ZM19.7902 15.9518C19.394 16.6345 18.7723 17.1587 18.0347 17.4269V13.1662C18.0347 12.9529 17.925 12.7578 17.7421 12.6542L13.5424 10.2282L15.0845 9.33827L18.5528 11.3376C20.1681 12.2702 20.7167 14.3305 19.7841 15.9457L19.7902 15.9518Z" fill="url(#paint0_linear_375_150591)"/>
<defs>
<linearGradient id="paint0_linear_375_150591" x1="3.66022" y1="21.8584" x2="21.6586" y2="4.10237" gradientUnits="userSpaceOnUse">
<stop stop-color="#EDEDED" stop-opacity="0.5"/>
<stop offset="1" stop-color="white"/>
</linearGradient>
</defs>
</svg>

<svg xmlns="http://www.w3.org/2000/svg" width="25" height="25" fill="none" viewBox="0 0 25 25"><path fill="url(#a)" d="M20.247 11.222a4.48 4.48 0 0 0-.384-3.682 4.55 4.55 0 0 0-4.882-2.176 4.5 4.5 0 0 0-3.383-1.506 4.55 4.55 0 0 0-4.328 3.14 4.5 4.5 0 0 0-2.999 2.176 4.535 4.535 0 0 0 .561 5.315 4.47 4.47 0 0 0 .384 3.675 4.55 4.55 0 0 0 4.889 2.183 4.49 4.49 0 0 0 3.376 1.511 4.55 4.55 0 0 0 4.328-3.139 4.47 4.47 0 0 0 2.993-2.176 4.52 4.52 0 0 0-.555-5.315zm-1.402-3.09c.39.682.537 1.48.403 2.255-.025-.019-.073-.043-.104-.061L15.56 8.253a.6.6 0 0 0-.591 0l-4.2 2.426V8.9l3.468-2.005a3.37 3.37 0 0 1 4.608 1.237m-8.076 3.7 1.768-1.025 1.767 1.024v2.042l-1.767 1.024-1.768-1.024zm.823-6.797a3.38 3.38 0 0 1 2.164.78c-.025.012-.073.043-.11.061l-3.584 2.066a.58.58 0 0 0-.293.512v4.852l-1.542-.89v-4.01a3.375 3.375 0 0 1 3.37-3.377zm-6.297 4.73a3.38 3.38 0 0 1 1.756-1.481v4.26c0 .214.11.403.292.512l4.194 2.42-1.548.896-3.463-1.999a3.375 3.375 0 0 1-1.23-4.608m.945 7.82a3.35 3.35 0 0 1-.402-2.255c.024.018.073.043.103.061l3.584 2.073a.6.6 0 0 0 .592 0l4.193-2.426v1.78l-3.468 1.999a3.38 3.38 0 0 1-4.608-1.232zm7.248 3.097a3.36 3.36 0 0 1-2.158-.78c.024-.012.079-.043.11-.061l3.584-2.067a.57.57 0 0 0 .292-.512v-4.846l1.542.89v4.005a3.375 3.375 0 0 1-3.37 3.377zm6.302-4.73a3.36 3.36 0 0 1-1.755 1.475v-4.26a.58.58 0 0 0-.293-.513l-4.2-2.426 1.543-.89 3.468 2a3.37 3.37 0 0 1 1.231 4.608z"/><defs><linearGradient id="a" x1="3.66" x2="21.659" y1="21.858" y2="4.102" gradientUnits="userSpaceOnUse"><stop stop-color="#ededed" stop-opacity=".5"/><stop offset="1" stop-color="#fff"/></linearGradient></defs></svg>
